lib/healthicons/icons/solid/symbols/openMRS_logo.svg

<svg fill="none" height="48" viewBox="0 0 48 48" width="48" xmlns="http://www.w3.org/2000/svg"><path clip-rule="evenodd" d="m24.0117 12.3538c-3.2197 0-6.1345 1.3049-8.2433 3.4137l-.0091-7.68701c2.4687-1.27201 5.2844-2.08049 8.2524-2.08049 2.9664 0 5.7671.71777 8.2346 1.98895l-.0083 7.76275c-2.1076-2.0993-5.0152-3.3979-8.2263-3.3979zm-.0162 23.2925c3.2194 0 6.1329-1.3044 8.2417-3.4136l-.0059 7.7781c-2.4674 1.2716-5.2678 1.9893-8.2358 1.9893s-5.7675-.7177-8.2362-1.9889l.0083-7.7627c2.1088 2.0996 5.0165 3.3978 8.2279 3.3978zm-8.2284-3.413c-2.1088-2.1088-3.4137-5.0219-3.4137-8.2416 0-3.2115 1.2986-6.1187 3.3983-8.2279l-7.76317-.0079c-1.27076 2.4682-1.98853 5.2678-1.98853 8.2358 0 2.9676.71777 5.7683 1.98936 8.2366zm19.8795-8.2341c0-3.2198-1.3045-6.1346-3.4137-8.2433l7.7781.0058c1.2716 2.4687 1.9894 5.2694 1.9894 8.2375 0 2.9663-.7178 5.7671-1.989 8.2345l-7.7631-.0083c2.1-2.1071 3.3983-5.0152 3.3983-8.2262z" fill="#333" fill-rule="evenodd"/></svg>

<svg width="48" height="48" viewBox="0 0 48 48" fill="none" xmlns="http://www.w3.org/2000/svg">
<path fill-rule="evenodd" clip-rule="evenodd" d="M24.0117 12.3538C20.792 12.3538 17.8772 13.6587 15.7684 15.7675L15.7593 8.08049C18.228 6.80848 21.0437 6 24.0117 6C26.9781 6 29.7788 6.71777 32.2463 7.98895L32.238 15.7517C30.1304 13.6524 27.2228 12.3538 24.0117 12.3538ZM23.9955 35.6463C27.2149 35.6463 30.1284 34.3419 32.2372 32.2327L32.2313 40.0108C29.7639 41.2824 26.9635 42.0001 23.9955 42.0001C21.0275 42.0001 18.228 41.2824 15.7593 40.0112L15.7676 32.2485C17.8764 34.3481 20.7841 35.6463 23.9955 35.6463ZM15.7671 32.2333C13.6583 30.1245 12.3534 27.2114 12.3534 23.9917C12.3534 20.7802 13.652 17.873 15.7517 15.7638L7.98853 15.7559C6.71777 18.2241 6 21.0237 6 23.9917C6 26.9593 6.71777 29.76 7.98936 32.2283L15.7671 32.2333ZM35.6466 23.9992C35.6466 20.7794 34.3421 17.8646 32.2329 15.7559L40.011 15.7617C41.2826 18.2304 42.0004 21.0311 42.0004 23.9992C42.0004 26.9655 41.2826 29.7663 40.0114 32.2337L32.2483 32.2254C34.3483 30.1183 35.6466 27.2102 35.6466 23.9992Z" fill="#333333"/>
</svg>
